X:182
T:La galope de Baie St-Paul
S:Laurence Beaudry
Z:robin.beech@mcgill.ca
M:4/4
L:1/8
K:D
DEFG A2FA | d2F2 A4 | f2ed c2A2 | BABc B2A2|
DEFG A2FA | d2F2 A4 | f2ed c2A2 | BABc d4 ::
Acde f2ed | e2f2 g4 | BABc B2AG | FGAB A4 |
Acde f2ed | e2f2 g4 | BABc B2A2 | BABc d4 :|
